lib/svg/info.svg

<svg xmlns="http://www.w3.org/2000/svg" width="14" height="16" viewBox="0 0 14 16"><path d="M6.3 5.69a.942.942 0 0 1-.28-.7c0-.28.09-.52.28-.7.19-.18.42-.28.7-.28.28 0 .52.09.7.28.18.19.28.42.28.7 0 .28-.09.52-.28.7a1 1 0 0 1-.7.3c-.28 0-.52-.11-.7-.3zM8 7.99c-.02-.25-.11-.48-.31-.69-.2-.19-.42-.3-.69-.31H6c-.27.02-.48.13-.69.31-.2.2-.3.44-.31.69h1v3c.02.27.11.5.31.69.2.2.42.31.69.31h1c.27 0 .48-.11.69-.31.2-.19.3-.42.31-.69H8V7.98v.01zM7 2.3c-3.14 0-5.7 2.54-5.7 5.68 0 3.14 2.56 5.7 5.7 5.7s5.7-2.55 5.7-5.7c0-3.15-2.56-5.69-5.7-5.69v.01zM7 .98c3.86 0 7 3.14 7 7s-3.14 7-7 7-7-3.12-7-7 3.14-7 7-7z"/></svg>

<?xml version="1.0" encoding="UTF-8" standalone="no"?>
<svg width="14px" height="16px" viewBox="0 0 14 16" version="1.1" xmlns="http://www.w3.org/2000/svg" xmlns:xlink="http://www.w3.org/1999/xlink">
    <!-- Generator: Sketch 3.8.3 (29802) - http://www.bohemiancoding.com/sketch -->
    <title>info</title>
    <desc>Created with Sketch.</desc>
    <defs></defs>
    <g id="Octicons" stroke="none" stroke-width="1" fill="none" fill-rule="evenodd">
        <g id="info" fill="#000000">
            <path d="M6.3,5.69 C6.11,5.5 6.02,5.27 6.02,4.99 C6.02,4.71 6.11,4.47 6.3,4.29 C6.49,4.11 6.72,4.01 7,4.01 C7.28,4.01 7.52,4.1 7.7,4.29 C7.88,4.48 7.98,4.71 7.98,4.99 C7.98,5.27 7.89,5.51 7.7,5.69 C7.51,5.87 7.28,5.99 7,5.99 C6.72,5.99 6.48,5.88 6.3,5.69 L6.3,5.69 Z M8,7.99 C7.98,7.74 7.89,7.51 7.69,7.3 C7.49,7.11 7.27,7 7,6.99 L6,6.99 C5.73,7.01 5.52,7.12 5.31,7.3 C5.11,7.5 5.01,7.74 5,7.99 L6,7.99 L6,10.99 C6.02,11.26 6.11,11.49 6.31,11.68 C6.51,11.88 6.73,11.99 7,11.99 L8,11.99 C8.27,11.99 8.48,11.88 8.69,11.68 C8.89,11.49 8.99,11.26 9,10.99 L8,10.99 L8,7.98 L8,7.99 Z M7,2.3 C3.86,2.3 1.3,4.84 1.3,7.98 C1.3,11.12 3.86,13.68 7,13.68 C10.14,13.68 12.7,11.13 12.7,7.98 C12.7,4.83 10.14,2.29 7,2.29 L7,2.3 Z M7,0.98 C10.86,0.98 14,4.12 14,7.98 C14,11.84 10.86,14.98 7,14.98 C3.14,14.98 0,11.86 0,7.98 C0,4.1 3.14,0.98 7,0.98 L7,0.98 Z" id="Shape"></path>
        </g>
    </g>
</svg>
